X:1
T:163 - Desejos
T:Letra: Salomão Luiz Ginsburg (1867-1927)
T:Música: Josiah Booth (1852-1929)
M:4/4
L:1/8
Q:1/4=100
K:Ebmaj
V:1
B2| "Eb"G2 B2 c2 "Bb7"d2| "Eb"e4 G2 "(Ab)"c2| "(Eb)"B2 G2 E2 "Bb7"A2| "Eb"G6 G2| "G7"G2 =B2 "Cm"c2 G2| ("G7"G2 =B2) "Cm"c2 "(G)"d2| "(Cm)"e2 c2 "F7"=A2 F2| "Bb"B4 z2 "Bb7"c2| "Eb"B2 A2 G2 B2| ("Ab"A2 G2) F2 "G"G2| "Cm"E2 A2 "Eb/Bb"G2 "Bb7"F2| "Eb"B6 "Bb"B2| "Eb"G2 B2 c2 e2| "F"f4 "Bb7"d2 "(Eb)"e2| "Cm7"G2 "F7"c2 "Bb7"F2 G2| "Eb"E4 z2 |]
w: 1.~Eu co-nhe-cer de-se-jo Oa-mor do meu Je-sus, A gló-ria sem-pi-ter_na Do rei-no do meu Deus. Eu a-pren-der de-se_jo A san-tae bo-a lei, Cum-prir o seu man-da-to, Com to-daa su-a grei.  
w: 2.~Re-pro-du-zir al-me-jo A vi-da de Je-sus; Ser man-so, ser hu-mil_de, Tam-bém ser-vir a Deus; Eu a-pren-der al-me_jo Com Je-sus Cris-toao-rar, So-zi-nho na mon-ta-nha Com o Se-nhor fa-lar.  
w: 3.~A-mar e-ter-na-men-te De-se-joa Ti, Je-sus; Pois Tu por mim so-fres_te A mal-di-ção da cruz. Ó Sal-va-dor, con-ce_de Queal-can-ce teu a-mor; A mim, o-ve-lha tu-a, Con-tem-pla com fa-vor!
W: 
W: 
W: 1. Eu conhecer desejo
W: O amor do meu Jesus,
W: A glória sempiterna
W: Do reino do meu Deus.
W: Eu aprender desejo
W: A santa e boa lei,
W: Cumprir o seu mandato,
W: Com toda a sua grei.
W: 
W: 2. Reproduzir almejo
W: A vida de Jesus;
W: Ser manso, ser humilde,
W: Também servir a Deus;
W: Eu aprender almejo
W: Com Jesus Cristo a orar,
W: Sozinho na montanha
W: Com o Senhor falar.
W: 
W: 
W: 
W: 3. Amar eternamente
W: Desejo a Ti, Jesus;
W: Pois Tu por mim sofreste
W: A maldição da cruz.
W: Ó Salvador, concede
W: Que alcance teu amor;
W: A mim, ovelha tua,
W: Contempla com favor!
W:         
W: 





